; generated by PrusaSlicer 2.7.1+win64 on 2024-02-07 at 05:27:18 UTC

; 

; external perimeters extrusion width = 0.42mm
; perimeters extrusion width = 0.44mm
; infill extrusion width = 0.44mm
; solid infill extrusion width = 0.44mm
; top infill extrusion width = 0.40mm
; support material extrusion width = 0.36mm
; first layer extrusion width = 0.42mm

M201 X500 Y500 Z100 E5000 ; sets maximum accelerations, mm/sec^2
M203 X500 Y500 Z10 E60 ; sets maximum feedrates, mm / sec
M204 S500 T1000 ; sets acceleration (S) and retract acceleration (R), mm/sec^2
M205 X8.00 Y8.00 Z0.40 E5.00 ; sets the jerk limits, mm/sec
M205 S0 T0 ; sets the minimum extruding and travel feed rate, mm/sec

; printing object SwitchBot Smart Lock Deadbolt Adapter v4.stl id:0 copy 0
; stop printing object SwitchBot Smart Lock Deadbolt Adapter v4.stl id:0 copy 0

;TYPE:Custom
G90 ; use absolute coordinates
M83 ; extruder relative mode
M104 S150 ; set temporary nozzle temp to prevent oozing during homing
M140 S60 ; set final bed temp
G4 S30 ; allow partial nozzle warmup
G28 ; home all axis
G1 Z50 F240
G1 X2.0 Y10 F3000
M104 S210 ; set final nozzle temp
M190 S60 ; wait for bed temp to stabilize
M109 S210 ; wait for nozzle temp to stabilize
G1 Z0.28 F240
G92 E0
G1 X2.0 Y140 E10 F1500 ; prime the nozzle
G1 X2.3 Y140 F5000
G92 E0
G1 X2.3 Y10 E10 F1200 ; prime the nozzle
G92 E0
G21 ; set units to millimeters
G90 ; use absolute coordinates
M83 ; use relative distances for extrusion
; Filament gcode
M107
;LAYER_CHANGE
;Z:0.2
;HEIGHT:0.2
;BEFORE_LAYER_CHANGE
G92 E0
;0.2


G1 E-5 F3600
G1 Z.2 F9000
;AFTER_LAYER_CHANGE
;0.2
G1 X94.854 Y100.535
G1 Z.2
G1 E5 F2400
M204 S500
;TYPE:Skirt/Brim
;WIDTH:0.42
G1 F1200
G1 X96.441 Y99.969 E.05283
G1 X110.929 Y98.652 E.45613
G1 X120.071 Y98.652 E.28664
G1 X134.559 Y99.969 E.45613
G1 X136.1 Y100.505 E.05116
G1 X137.21 Y101.7 E.05114
G1 X137.63 Y103.332 E.05284
G1 X137.63 Y127.668 E.76304
G1 X137.236 Y129.251 E.05115
G1 X136.146 Y130.465 E.05116
G1 X134.559 Y131.031 E.05283
G1 X119.766 Y132.362 E.4657
G1 X110.929 Y132.348 E.27708
G1 X96.441 Y131.031 E.45613
G1 X94.9 Y130.495 E.05116
G1 X93.79 Y129.3 E.05114
G1 X93.37 Y127.668 E.05284
G1 X93.37 Y103.332 E.76304
G1 X93.764 Y101.749 E.05115
G1 X94.814 Y100.58 E.04927
; printing object SwitchBot Smart Lock Deadbolt Adapter v4.stl id:0 copy 0
G1 E-3.5 F3600
;WIPE_START
G1 F7200
G1 X94.854 Y100.535 E-.0286
G1 X96.441 Y99.969 E-.80033
G1 X97.848 Y99.841 E-.67107
;WIPE_END
G1 X100.924 Y123.284 F9000
G1 E5 F2400
;TYPE:Support material
G1 F1200
G1 X101.194 Y123.555 E.01199
G1 X129.806 Y123.555 E.89711
G1 X130.076 Y123.284 E.01199
G1 X130.076 Y117.82 E.17132
G1 X134.253 Y117.82 E.13097
G1 X134.253 Y127.668 E.30878
G1 X119.766 Y127.668 E.45423
G1 X119.766 Y128.985 E.04129
G1 X111.234 Y128.985 E.26751
G1 X111.234 Y127.668 E.04129
G1 X96.747 Y127.668 E.45423
G1 X96.747 Y117.82 E.30878
G1 X100.924 Y117.82 E.13097
G1 X100.924 Y123.228 E.16956
G1 E-3.5 F3600
;WIPE_START
G1 F7200
G1 X100.924 Y120.07 E-1.5
;WIPE_END
G1 X133.516 Y127.498 F9000
G1 E5 F2400
G1 F1200
G1 X133.516 Y118.159 E.29282
G1 X133.097 Y118.159 E.01314
G1 X133.097 Y127.329 E.28752
G1 X132.678 Y127.329 E.01314
G1 X132.678 Y118.159 E.28752
G1 X132.259 Y118.159 E.01314
G1 X132.259 Y127.329 E.28752
G1 X131.84 Y127.329 E.01314
G1 X131.84 Y118.159 E.28752
G1 X131.421 Y118.159 E.01314
G1 X131.421 Y127.329 E.28752
G1 X131.002 Y127.329 E.01314
G1 X131.002 Y118.159 E.28752
G1 X130.583 Y118.159 E.01314
G1 X130.583 Y127.329 E.28752
G1 X130.164 Y127.329 E.01314
G1 X130.164 Y123.676 E.11454
G1 X129.946 Y123.894 E.00967
G1 X129.745 Y123.894 E.0063
G1 X129.745 Y127.329 E.1077
G1 X129.326 Y127.329 E.01314
G1 X129.326 Y123.894 E.1077
G1 X128.907 Y123.894 E.01314
G1 X128.907 Y127.329 E.1077
G1 X128.488 Y127.329 E.01314
G1 X128.488 Y123.894 E.1077
G1 X128.069 Y123.894 E.01314
G1 X128.069 Y127.329 E.1077
G1 X127.65 Y127.329 E.01314
G1 X127.65 Y123.894 E.1077
G1 X127.231 Y123.894 E.01314
G1 X127.231 Y127.329 E.1077
G1 X126.812 Y127.329 E.01314
G1 X126.812 Y123.894 E.1077
G1 X126.393 Y123.894 E.01314
G1 X126.393 Y127.329 E.1077
G1 X125.974 Y127.329 E.01314
G1 X125.974 Y123.894 E.1077
G1 X125.555 Y123.894 E.01314
G1 X125.555 Y127.329 E.1077
G1 X125.136 Y127.329 E.01314
G1 X125.136 Y123.894 E.1077
G1 X124.717 Y123.894 E.01314
G1 X124.717 Y127.329 E.1077
G1 X124.299 Y127.329 E.01311
G1 X124.299 Y123.894 E.1077
G1 X123.88 Y123.894 E.01314
G1 X123.88 Y127.329 E.1077
G1 X123.461 Y127.329 E.01314
G1 X123.461 Y123.894 E.1077
G1 X123.042 Y123.894 E.01314
G1 X123.042 Y127.329 E.1077
G1 X122.623 Y127.329 E.01314
G1 X122.623 Y123.894 E.1077
G1 X122.204 Y123.894 E.01314
G1 X122.204 Y127.329 E.1077
G1 X121.785 Y127.329 E.01314
G1 X121.785 Y123.894 E.1077
G1 X121.366 Y123.894 E.01314
G1 X121.366 Y127.329 E.1077
G1 X120.947 Y127.329 E.01314
G1 X120.947 Y123.894 E.1077
G1 X120.528 Y123.894 E.01314
G1 X120.528 Y127.329 E.1077
G1 X120.109 Y127.329 E.01314
G1 X120.109 Y123.894 E.1077
G1 X119.69 Y123.894 E.01314
G1 X119.69 Y127.329 E.1077
G1 X119.426 Y127.329 E.00828
G1 X119.426 Y128.646 E.04129
G1 X119.271 Y128.646 E.00486
G1 X119.271 Y123.894 E.149
G1 X118.852 Y123.894 E.01314
G1 X118.852 Y128.646 E.149
G1 X118.433 Y128.646 E.01314
G1 X118.433 Y123.894 E.149
G1 X118.014 Y123.894 E.01314
G1 X118.014 Y128.646 E.149
G1 X117.595 Y128.646 E.01314
G1 X117.595 Y123.894 E.149
G1 X117.176 Y123.894 E.01314
G1 X117.176 Y128.646 E.149
G1 X116.757 Y128.646 E.01314
G1 X116.757 Y123.894 E.149
G1 X116.338 Y123.894 E.01314
G1 X116.338 Y128.646 E.149
G1 X115.919 Y128.646 E.01314
G1 X115.919 Y123.894 E.149
G1 X115.5 Y123.894 E.01314
G1 X115.5 Y128.646 E.149
G1 X115.081 Y128.646 E.01314
G1 X115.081 Y123.894 E.149
G1 X114.662 Y123.894 E.01314
G1 X114.662 Y128.646 E.149
G1 X114.243 Y128.646 E.01314
G1 X114.243 Y123.894 E.149
G1 X113.824 Y123.894 E.01314
G1 X113.824 Y128.646 E.149
G1 X113.405 Y128.646 E.01314
G1 X113.405 Y123.894 E.149
G1 X112.986 Y123.894 E.01314
G1 X112.986 Y128.646 E.149
G1 X112.567 Y128.646 E.01314
G1 X112.567 Y123.894 E.149
G1 X112.148 Y123.894 E.01314
G1 X112.148 Y128.646 E.149
G1 X111.729 Y128.646 E.01314
G1 X111.729 Y123.894 E.149
G1 X111.31 Y123.894 E.01314
G1 X111.31 Y127.329 E.1077
G1 X110.891 Y127.329 E.01314
G1 X110.891 Y123.894 E.1077
G1 X110.472 Y123.894 E.01314
G1 X110.472 Y127.329 E.1077
G1 X110.053 Y127.329 E.01314
G1 X110.053 Y123.894 E.1077
G1 X109.634 Y123.894 E.01314
G1 X109.634 Y127.329 E.1077
G1 X109.215 Y127.329 E.01314
G1 X109.215 Y123.894 E.1077
G1 X108.796 Y123.894 E.01314
G1 X108.796 Y127.329 E.1077
G1 X108.377 Y127.329 E.01314
G1 X108.377 Y123.894 E.1077
G1 X107.958 Y123.894 E.01314
G1 X107.958 Y127.329 E.1077
G1 X107.539 Y127.329 E.01314
G1 X107.539 Y123.894 E.1077
G1 X107.12 Y123.894 E.01314
G1 X107.12 Y127.329 E.1077
G1 X106.701 Y127.329 E.01314
G1 X106.701 Y123.894 E.1077
G1 X106.283 Y123.894 E.01311
G1 X106.283 Y127.329 E.1077
G1 X105.864 Y127.329 E.01314
G1 X105.864 Y123.894 E.1077
G1 X105.445 Y123.894 E.01314
G1 X105.445 Y127.329 E.1077
G1 X105.026 Y127.329 E.01314
G1 X105.026 Y123.894 E.1077
G1 X104.607 Y123.894 E.01314
G1 X104.607 Y127.329 E.1077
G1 X104.188 Y127.329 E.01314
G1 X104.188 Y123.894 E.1077
G1 X103.769 Y123.894 E.01314
G1 X103.769 Y127.329 E.1077
G1 X103.35 Y127.329 E.01314
G1 X103.35 Y123.894 E.1077
G1 X102.931 Y123.894 E.01314
G1 X102.931 Y127.329 E.1077
G1 X102.512 Y127.329 E.01314
G1 X102.512 Y123.894 E.1077
G1 X102.093 Y123.894 E.01314
G1 X102.093 Y127.329 E.1077
G1 X101.674 Y127.329 E.01314
G1 X101.674 Y123.894 E.1077
G1 X101.255 Y123.894 E.01314
G1 X101.255 Y127.329 E.1077
G1 X100.836 Y127.329 E.01314
G1 X100.836 Y123.676 E.11454
G1 X100.584 Y123.425 E.01115
G1 X100.584 Y118.159 E.16511
G1 X100.417 Y118.159 E.00524
G1 X100.417 Y127.329 E.28752
G1 X99.998 Y127.329 E.01314
G1 X99.998 Y118.159 E.28752
G1 X99.579 Y118.159 E.01314
G1 X99.579 Y127.329 E.28752
G1 X99.16 Y127.329 E.01314
G1 X99.16 Y118.159 E.28752
G1 X98.741 Y118.159 E.01314
G1 X98.741 Y127.329 E.28752
G1 X98.322 Y127.329 E.01314
G1 X98.322 Y118.159 E.28752
G1 X97.903 Y118.159 E.01314
G1 X97.903 Y127.329 E.28752
G1 X97.484 Y127.329 E.01314
G1 X97.484 Y117.99 E.29282
G1 E-3.5 F3600
;WIPE_START
G1 F7200
G1 X97.484 Y121.148 E-1.5
;WIPE_END
G1 X119.766 Y103.332 F9000
G1 E5 F2400
G1 F1200
G1 X134.253 Y103.332 E.45423
G1 X134.253 Y113.18 E.30878
G1 X130.076 Y113.18 E.13097
G1 X130.076 Y107.716 E.17132
G1 X129.806 Y107.445 E.01199
G1 X101.194 Y107.445 E.89711
G1 X100.924 Y107.716 E.01199
G1 X100.924 Y113.18 E.17132
G1 X96.747 Y113.18 E.13097
G1 X96.747 Y103.332 E.30878
G1 X111.234 Y103.332 E.45423
G1 X111.234 Y102.015 E.04129
G1 X119.766 Y102.015 E.26751
G1 X119.766 Y103.275 E.03951
G1 E-3.5 F3600
;WIPE_START
G1 F7200
G1 X119.766 Y102.015 E-.5985
G1 X117.868 Y102.015 E-.9015
;WIPE_END
G1 X133.516 Y113.01 F9000
G1 E5 F2400
G1 F1200
G1 X133.516 Y103.671 E.29282
G1 X133.097 Y103.671 E.01314
G1 X133.097 Y112.841 E.28752
G1 X132.678 Y112.841 E.01314
G1 X132.678 Y103.671 E.28752
G1 X132.259 Y103.671 E.01314
G1 X132.259 Y112.841 E.28752
G1 X131.84 Y112.841 E.01314
G1 X131.84 Y103.671 E.28752
G1 X131.421 Y103.671 E.01314
G1 X131.421 Y112.841 E.28752
G1 X131.002 Y112.841 E.01314
G1 X131.002 Y103.671 E.28752
G1 X130.583 Y103.671 E.01314
G1 X130.583 Y112.841 E.28752
G1 X130.416 Y112.841 E.00524
G1 X130.416 Y107.575 E.16511
G1 X130.164 Y107.324 E.01115
G1 X130.164 Y103.671 E.11454
G1 X129.745 Y103.671 E.01314
G1 X129.745 Y107.106 E.1077
G1 X129.326 Y107.106 E.01314
G1 X129.326 Y103.671 E.1077
G1 X128.907 Y103.671 E.01314
G1 X128.907 Y107.106 E.1077
G1 X128.488 Y107.106 E.01314
G1 X128.488 Y103.671 E.1077
G1 X128.069 Y103.671 E.01314
G1 X128.069 Y107.106 E.1077
G1 X127.65 Y107.106 E.01314
G1 X127.65 Y103.671 E.1077
G1 X127.231 Y103.671 E.01314
G1 X127.231 Y107.106 E.1077
G1 X126.812 Y107.106 E.01314
G1 X126.812 Y103.671 E.1077
G1 X126.393 Y103.671 E.01314
G1 X126.393 Y107.106 E.1077
G1 X125.974 Y107.106 E.01314
G1 X125.974 Y103.671 E.1077
G1 X125.555 Y103.671 E.01314
G1 X125.555 Y107.106 E.1077
G1 X125.136 Y107.106 E.01314
G1 X125.136 Y103.671 E.1077
G1 X124.717 Y103.671 E.01314
G1 X124.717 Y107.106 E.1077
G1 X124.299 Y107.106 E.01311
G1 X124.299 Y103.671 E.1077
G1 X123.88 Y103.671 E.01314
G1 X123.88 Y107.106 E.1077
G1 X123.461 Y107.106 E.01314
G1 X123.461 Y103.671 E.1077
G1 X123.042 Y103.671 E.01314
G1 X123.042 Y107.106 E.1077
G1 X122.623 Y107.106 E.01314
G1 X122.623 Y103.671 E.1077
G1 X122.204 Y103.671 E.01314
G1 X122.204 Y107.106 E.1077
G1 X121.785 Y107.106 E.01314
G1 X121.785 Y103.671 E.1077
G1 X121.366 Y103.671 E.01314
G1 X121.366 Y107.106 E.1077
G1 X120.947 Y107.106 E.01314
G1 X120.947 Y103.671 E.1077
G1 X120.528 Y103.671 E.01314
G1 X120.528 Y107.106 E.1077
G1 X120.109 Y107.106 E.01314
G1 X120.109 Y103.671 E.1077
G1 X119.69 Y103.671 E.01314
G1 X119.69 Y107.106 E.1077
G1 X119.271 Y107.106 E.01314
G1 X119.271 Y102.354 E.149
G1 X118.852 Y102.354 E.01314
G1 X118.852 Y107.106 E.149
G1 X118.433 Y107.106 E.01314
G1 X118.433 Y102.354 E.149
G1 X118.014 Y102.354 E.01314
G1 X118.014 Y107.106 E.149
G1 X117.595 Y107.106 E.01314
G1 X117.595 Y102.354 E.149
G1 X117.176 Y102.354 E.01314
G1 X117.176 Y107.106 E.149
G1 X116.757 Y107.106 E.01314
G1 X116.757 Y102.354 E.149
G1 X116.338 Y102.354 E.01314
G1 X116.338 Y107.106 E.149
G1 X115.919 Y107.106 E.01314
G1 X115.919 Y102.354 E.149
G1 X115.5 Y102.354 E.01314
G1 X115.5 Y107.106 E.149
G1 X115.081 Y107.106 E.01314
G1 X115.081 Y102.354 E.149
G1 X114.662 Y102.354 E.01314
G1 X114.662 Y107.106 E.149
G1 X114.243 Y107.106 E.01314
G1 X114.243 Y102.354 E.149
G1 X113.824 Y102.354 E.01314
G1 X113.824 Y107.106 E.149
G1 X113.405 Y107.106 E.01314
G1 X113.405 Y102.354 E.149
G1 X112.986 Y102.354 E.01314
G1 X112.986 Y107.106 E.149
G1 X112.567 Y107.106 E.01314
G1 X112.567 Y102.354 E.149
G1 X112.148 Y102.354 E.01314
G1 X112.148 Y107.106 E.149
G1 X111.729 Y107.106 E.01314
G1 X111.729 Y102.354 E.149
G1 X111.574 Y102.354 E.00486
G1 X111.574 Y103.671 E.04129
G1 X111.31 Y103.671 E.00828
G1 X111.31 Y107.106 E.1077
G1 X110.891 Y107.106 E.01314
G1 X110.891 Y103.671 E.1077
G1 X110.472 Y103.671 E.01314
G1 X110.472 Y107.106 E.1077
G1 X110.053 Y107.106 E.01314
G1 X110.053 Y103.671 E.1077
G1 X109.634 Y103.671 E.01314
G1 X109.634 Y107.106 E.1077
G1 X109.215 Y107.106 E.01314
G1 X109.215 Y103.671 E.1077
G1 X108.796 Y103.671 E.01314
G1 X108.796 Y107.106 E.1077
G1 X108.377 Y107.106 E.01314
G1 X108.377 Y103.671 E.1077
G1 X107.958 Y103.671 E.01314
G1 X107.958 Y107.106 E.1077
G1 X107.539 Y107.106 E.01314
G1 X107.539 Y103.671 E.1077
G1 X107.12 Y103.671 E.01314
G1 X107.12 Y107.106 E.1077
G1 X106.701 Y107.106 E.01314
G1 X106.701 Y103.671 E.1077
G1 X106.283 Y103.671 E.01311
G1 X106.283 Y107.106 E.1077
G1 X105.864 Y107.106 E.01314
G1 X105.864 Y103.671 E.1077
G1 X105.445 Y103.671 E.01314
G1 X105.445 Y107.106 E.1077
G1 X105.026 Y107.106 E.01314
G1 X105.026 Y103.671 E.1077
G1 X104.607 Y103.671 E.01314
G1 X104.607 Y107.106 E.1077
G1 X104.188 Y107.106 E.01314
G1 X104.188 Y103.671 E.1077
G1 X103.769 Y103.671 E.01314
G1 X103.769 Y107.106 E.1077
G1 X103.35 Y107.106 E.01314
G1 X103.35 Y103.671 E.1077
G1 X102.931 Y103.671 E.01314
G1 X102.931 Y107.106 E.1077
G1 X102.512 Y107.106 E.01314
G1 X102.512 Y103.671 E.1077
G1 X102.093 Y103.671 E.01314
G1 X102.093 Y107.106 E.1077
G1 X101.674 Y107.106 E.01314
G1 X101.674 Y103.671 E.1077
G1 X101.255 Y103.671 E.01314
G1 X101.255 Y107.106 E.1077
G1 X101.054 Y107.106 E.0063
G1 X100.836 Y107.324 E.00967
G1 X100.836 Y103.671 E.11454
G1 X100.417 Y103.671 E.01314
G1 X100.417 Y112.841 E.28752
G1 X99.998 Y112.841 E.01314
G1 X99.998 Y103.671 E.28752
G1 X99.579 Y103.671 E.01314
G1 X99.579 Y112.841 E.28752
G1 X99.16 Y112.841 E.01314
G1 X99.16 Y103.671 E.28752
G1 X98.741 Y103.671 E.01314
G1 X98.741 Y112.841 E.28752
G1 X98.322 Y112.841 E.01314
G1 X98.322 Y103.671 E.28752
G1 X97.903 Y103.671 E.01314
G1 X97.903 Y112.841 E.28752
G1 X97.484 Y112.841 E.01314
G1 X97.484 Y103.502 E.29282
G1 E-3.5 F3600
;WIPE_START
G1 F7200
G1 X97.484 Y106.66 E-1.5
;WIPE_END
G1 X102.45 Y108.971 F9000
G1 E5 F2400
;TYPE:Perimeter
;WIDTH:0.419999
G1 F1200
G1 X128.55 Y108.971 E.81835
G1 X128.55 Y115.5 E.20471
G1 X128.55 Y122.029 E.20471
G1 X102.45 Y122.029 E.81835
G1 X102.45 Y109.031 E.40754
G1 X102.073 Y108.594 F9000
G1 F1200
G1 X128.927 Y108.594 E.84199
G1 X128.927 Y115.5 E.21653
G1 X128.927 Y122.406 E.21653
G1 X102.073 Y122.406 E.84199
G1 X102.073 Y108.654 E.43118
G1 X101.696 Y108.217 F9000
;TYPE:External perimeter
G1 F1200
G1 X129.304 Y108.217 E.86563
G1 X129.304 Y115.5 E.22835
G1 X129.304 Y122.783 E.22835
G1 X101.696 Y122.783 E.86563
G1 X101.696 Y108.277 E.45482
G1 E-3.5 F3600
;WIPE_START
G1 F7200
G1 X101.696 Y108.217 E-.0285
G1 X104.794 Y108.217 E-1.4715
;WIPE_END
G1 X127.66 Y109.092 F9000
G1 E5 F2400
;TYPE:Solid infill
;WIDTH:0.423486
G1 F1200
G1 X128.26 Y109.692 E.02685
G1 X128.26 Y110.23 E.01702
G1 X127.291 Y109.262 E.04334
G1 X126.753 Y109.262 E.01702
G1 X128.26 Y110.768 E.06742
G1 X128.26 Y111.307 E.01706
G1 X126.215 Y109.262 E.09152
G1 X125.677 Y109.262 E.01702
G1 X128.26 Y111.845 E.11559
G1 X128.26 Y112.383 E.01702
G1 X125.139 Y109.262 E.13967
G1 X124.6 Y109.262 E.01706
G1 X128.26 Y112.921 E.16377
G1 X128.26 Y113.459 E.01702
G1 X124.062 Y109.262 E.18785
G1 X123.524 Y109.262 E.01702
G1 X128.26 Y113.998 E.21194
G1 X128.26 Y114.536 E.01702
G1 X122.986 Y109.262 E.23602
G1 X122.448 Y109.262 E.01702
G1 X128.26 Y115.074 E.2601
G1 X128.26 Y115.612 E.01702
G1 X121.909 Y109.262 E.2842
G1 X121.371 Y109.262 E.01702
G1 X128.26 Y116.15 E.30827
G1 X128.26 Y116.689 E.01706
G1 X120.833 Y109.262 E.33237
G1 X120.295 Y109.262 E.01702
G1 X128.26 Y117.227 E.35645
G1 X128.26 Y117.765 E.01702
G1 X119.756 Y109.262 E.38055
G1 X119.218 Y109.262 E.01702
G1 X128.26 Y118.303 E.40462
G1 X128.26 Y118.841 E.01702
G1 X118.68 Y109.262 E.4287
G1 X118.142 Y109.262 E.01702
G1 X128.26 Y119.38 E.4528
G1 X128.26 Y119.918 E.01702
G1 X117.604 Y109.262 E.47687
G1 X117.065 Y109.262 E.01706
G1 X128.26 Y120.456 E.50097
G1 X128.26 Y120.994 E.01702
G1 X116.527 Y109.262 E.52505
G1 X115.989 Y109.262 E.01702
G1 X128.26 Y121.532 E.54913
G1 X128.26 Y121.738 E.00652
G1 X127.928 Y121.738 E.01051
