; generated by PrusaSlicer 2.7.1+win64 on 2024-02-10 at 23:09:18 UTC

; 

; external perimeters extrusion width = 0.42mm
; perimeters extrusion width = 0.44mm
; infill extrusion width = 0.44mm
; solid infill extrusion width = 0.44mm
; top infill extrusion width = 0.40mm
; support material extrusion width = 0.36mm
; first layer extrusion width = 0.42mm

M201 X500 Y500 Z100 E5000 ; sets maximum accelerations, mm/sec^2
M203 X500 Y500 Z10 E60 ; sets maximum feedrates, mm / sec
M204 S500 T1000 ; sets acceleration (S) and retract acceleration (R), mm/sec^2
M205 X8.00 Y8.00 Z0.40 E5.00 ; sets the jerk limits, mm/sec
M205 S0 T0 ; sets the minimum extruding and travel feed rate, mm/sec

; printing object SwitchBot Smart Lock Deadbolt Adapter v7.stl id:0 copy 0
; stop printing object SwitchBot Smart Lock Deadbolt Adapter v7.stl id:0 copy 0

;TYPE:Custom
G90 ; use absolute coordinates
M83 ; extruder relative mode
M104 S150 ; set temporary nozzle temp to prevent oozing during homing
M140 S60 ; set final bed temp
G4 S30 ; allow partial nozzle warmup
G28 ; home all axis
G1 Z50 F240
G1 X2.0 Y10 F3000
M104 S210 ; set final nozzle temp
M190 S60 ; wait for bed temp to stabilize
M109 S210 ; wait for nozzle temp to stabilize
G1 Z0.28 F240
G92 E0
G1 X2.0 Y140 E10 F1500 ; prime the nozzle
G1 X2.3 Y140 F5000
G92 E0
G1 X2.3 Y10 E10 F1200 ; prime the nozzle
G92 E0
G21 ; set units to millimeters
G90 ; use absolute coordinates
M83 ; use relative distances for extrusion
; Filament gcode
M107
;LAYER_CHANGE
;Z:0.2
;HEIGHT:0.2
;BEFORE_LAYER_CHANGE
G92 E0
;0.2


G1 E-5 F3600
G1 Z.2 F9000
;AFTER_LAYER_CHANGE
;0.2
G1 X94.854 Y100.535
G1 Z.2
G1 E5 F2400
M204 S500
;TYPE:Skirt/Brim
;WIDTH:0.42
G1 F1200
G1 X96.441 Y99.969 E.05283
G1 X110.929 Y98.652 E.45613
G1 X120.071 Y98.652 E.28664
G1 X134.559 Y99.969 E.45613
G1 X136.1 Y100.505 E.05116
G1 X137.21 Y101.7 E.05114
G1 X137.63 Y103.332 E.05284
G1 X137.63 Y127.668 E.76304
G1 X137.236 Y129.251 E.05115
G1 X136.146 Y130.465 E.05116
G1 X134.559 Y131.031 E.05283
G1 X119.766 Y132.362 E.4657
G1 X110.929 Y132.348 E.27708
G1 X96.441 Y131.031 E.45613
G1 X94.9 Y130.495 E.05116
G1 X93.79 Y129.3 E.05114
G1 X93.37 Y127.668 E.05284
G1 X93.37 Y103.332 E.76304
G1 X93.764 Y101.749 E.05115
G1 X94.814 Y100.58 E.04927
; printing object SwitchBot Smart Lock Deadbolt Adapter v7.stl id:0 copy 0
G1 E-3.5 F3600
;WIPE_START
G1 F7200
G1 X94.854 Y100.535 E-.0286
G1 X96.441 Y99.969 E-.80033
G1 X97.848 Y99.841 E-.67107
;WIPE_END
G1 X119.766 Y103.332 F9000
G1 E5 F2400
;TYPE:Support material
G1 F1200
G1 X134.253 Y103.332 E.45423
G1 X134.253 Y127.668 E.76304
G1 X119.766 Y127.668 E.45423
G1 X119.766 Y128.985 E.04129
G1 X111.234 Y128.985 E.26751
G1 X111.234 Y127.668 E.04129
G1 X96.747 Y127.668 E.45423
G1 X96.747 Y103.332 E.76304
G1 X111.234 Y103.332 E.45423
G1 X111.234 Y102.015 E.04129
G1 X119.766 Y102.015 E.26751
G1 X119.766 Y103.275 E.03951
G1 X101.444 Y107.695 F9000
G1 F1200
G1 X129.556 Y107.695 E.88143
G1 X129.826 Y107.966 E.01199
G1 X129.826 Y123.034 E.47245
G1 X129.556 Y123.305 E.01199
G1 X101.444 Y123.305 E.88143
G1 X101.174 Y123.034 E.01199
G1 X101.174 Y107.966 E.47245
G1 X101.404 Y107.735 E.01022
G1 E-3.5 F3600
;WIPE_START
G1 F7200
G1 X101.174 Y107.966 E-.15484
G1 X101.174 Y110.798 E-1.34516
;WIPE_END
G1 X133.516 Y127.498 F9000
G1 E5 F2400
G1 F1200
G1 X133.516 Y103.671 E.74708
G1 X133.097 Y103.671 E.01314
G1 X133.097 Y127.329 E.74178
G1 X132.678 Y127.329 E.01314
G1 X132.678 Y103.671 E.74178
G1 X132.259 Y103.671 E.01314
G1 X132.259 Y127.329 E.74178
G1 X131.84 Y127.329 E.01314
G1 X131.84 Y103.671 E.74178
G1 X131.421 Y103.671 E.01314
G1 X131.421 Y127.329 E.74178
G1 X131.002 Y127.329 E.01314
G1 X131.002 Y103.671 E.74178
G1 X130.583 Y103.671 E.01314
G1 X130.583 Y127.329 E.74178
G1 X130.164 Y127.329 E.01314
G1 X130.164 Y103.671 E.74178
G1 X129.745 Y103.671 E.01314
G1 X129.745 Y107.405 E.11708
G1 X129.326 Y107.356 E.01323
G1 X129.326 Y103.671 E.11554
G1 X128.907 Y103.671 E.01314
G1 X128.907 Y107.356 E.11554
G1 X128.488 Y107.356 E.01314
G1 X128.488 Y103.671 E.11554
G1 X128.069 Y103.671 E.01314
G1 X128.069 Y107.356 E.11554
G1 X127.65 Y107.356 E.01314
G1 X127.65 Y103.671 E.11554
G1 X127.231 Y103.671 E.01314
G1 X127.231 Y107.356 E.11554
G1 X126.812 Y107.356 E.01314
G1 X126.812 Y103.671 E.11554
G1 X126.393 Y103.671 E.01314
G1 X126.393 Y107.356 E.11554
G1 X125.974 Y107.356 E.01314
G1 X125.974 Y103.671 E.11554
G1 X125.555 Y103.671 E.01314
G1 X125.555 Y107.356 E.11554
G1 X125.136 Y107.356 E.01314
G1 X125.136 Y103.671 E.11554
G1 X124.717 Y103.671 E.01314
G1 X124.717 Y107.356 E.11554
G1 X124.299 Y107.356 E.01311
G1 X124.299 Y103.671 E.11554
G1 X123.88 Y103.671 E.01314
G1 X123.88 Y107.356 E.11554
G1 X123.461 Y107.356 E.01314
G1 X123.461 Y103.671 E.11554
G1 X123.042 Y103.671 E.01314
G1 X123.042 Y107.356 E.11554
G1 X122.623 Y107.356 E.01314
G1 X122.623 Y103.671 E.11554
G1 X122.204 Y103.671 E.01314
G1 X122.204 Y107.356 E.11554
G1 X121.785 Y107.356 E.01314
G1 X121.785 Y103.671 E.11554
G1 X121.366 Y103.671 E.01314
G1 X121.366 Y107.356 E.11554
G1 X120.947 Y107.356 E.01314
G1 X120.947 Y103.671 E.11554
G1 X120.528 Y103.671 E.01314
G1 X120.528 Y107.356 E.11554
G1 X120.109 Y107.356 E.01314
G1 X120.109 Y103.671 E.11554
G1 X119.69 Y103.671 E.01314
G1 X119.69 Y107.356 E.11554
G1 X119.271 Y107.356 E.01314
G1 X119.271 Y102.354 E.15683
G1 X118.852 Y102.354 E.01314
G1 X118.852 Y107.356 E.15683
G1 X118.433 Y107.356 E.01314
G1 X118.433 Y102.354 E.15683
G1 X118.014 Y102.354 E.01314
G1 X118.014 Y107.356 E.15683
G1 X117.595 Y107.356 E.01314
G1 X117.595 Y102.354 E.15683
G1 X117.176 Y102.354 E.01314
G1 X117.176 Y107.356 E.15683
G1 X116.757 Y107.356 E.01314
G1 X116.757 Y102.354 E.15683
G1 X116.338 Y102.354 E.01314
G1 X116.338 Y107.356 E.15683
G1 X115.919 Y107.356 E.01314
G1 X115.919 Y102.354 E.15683
G1 X115.5 Y102.354 E.01314
G1 X115.5 Y107.356 E.15683
G1 X115.081 Y107.356 E.01314
G1 X115.081 Y102.354 E.15683
G1 X114.662 Y102.354 E.01314
G1 X114.662 Y107.356 E.15683
G1 X114.243 Y107.356 E.01314
G1 X114.243 Y102.354 E.15683
G1 X113.824 Y102.354 E.01314
G1 X113.824 Y107.356 E.15683
G1 X113.405 Y107.356 E.01314
G1 X113.405 Y102.354 E.15683
G1 X112.986 Y102.354 E.01314
G1 X112.986 Y107.356 E.15683
G1 X112.567 Y107.356 E.01314
G1 X112.567 Y102.354 E.15683
G1 X112.148 Y102.354 E.01314
G1 X112.148 Y107.356 E.15683
G1 X111.729 Y107.356 E.01314
G1 X111.729 Y102.354 E.15683
G1 X111.574 Y102.354 E.00486
G1 X111.574 Y103.671 E.04129
G1 X111.31 Y103.671 E.00828
G1 X111.31 Y107.356 E.11554
G1 X110.891 Y107.356 E.01314
G1 X110.891 Y103.671 E.11554
G1 X110.472 Y103.671 E.01314
G1 X110.472 Y107.356 E.11554
G1 X110.053 Y107.356 E.01314
G1 X110.053 Y103.671 E.11554
G1 X109.634 Y103.671 E.01314
G1 X109.634 Y107.356 E.11554
G1 X109.215 Y107.356 E.01314
G1 X109.215 Y103.671 E.11554
G1 X108.796 Y103.671 E.01314
G1 X108.796 Y107.356 E.11554
G1 X108.377 Y107.356 E.01314
G1 X108.377 Y103.671 E.11554
G1 X107.958 Y103.671 E.01314
G1 X107.958 Y107.356 E.11554
G1 X107.539 Y107.356 E.01314
G1 X107.539 Y103.671 E.11554
G1 X107.12 Y103.671 E.01314
G1 X107.12 Y107.356 E.11554
G1 X106.701 Y107.356 E.01314
G1 X106.701 Y103.671 E.11554
G1 X106.283 Y103.671 E.01311
G1 X106.283 Y107.356 E.11554
G1 X105.864 Y107.356 E.01314
G1 X105.864 Y103.671 E.11554
G1 X105.445 Y103.671 E.01314
G1 X105.445 Y107.356 E.11554
G1 X105.026 Y107.356 E.01314
G1 X105.026 Y103.671 E.11554
G1 X104.607 Y103.671 E.01314
G1 X104.607 Y107.356 E.11554
G1 X104.188 Y107.356 E.01314
G1 X104.188 Y103.671 E.11554
G1 X103.769 Y103.671 E.01314
G1 X103.769 Y107.356 E.11554
G1 X103.35 Y107.356 E.01314
G1 X103.35 Y103.671 E.11554
G1 X102.931 Y103.671 E.01314
G1 X102.931 Y107.356 E.11554
G1 X102.512 Y107.356 E.01314
G1 X102.512 Y103.671 E.11554
G1 X102.093 Y103.671 E.01314
G1 X102.093 Y107.356 E.11554
G1 X101.674 Y107.356 E.01314
G1 X101.674 Y103.671 E.11554
G1 X101.255 Y103.671 E.01314
G1 X101.255 Y107.645 E.1246
G1 E-3.5 F3600
;WIPE_START
G1 F7200
G1 X101.255 Y104.487 E-1.5
;WIPE_END
G1 X129.745 Y127.498 F9000
G1 E5 F2400
G1 F1200
G1 X129.745 Y123.595 E.12238
G1 X129.326 Y123.644 E.01323
G1 X129.326 Y127.329 E.11554
G1 X128.907 Y127.329 E.01314
G1 X128.907 Y123.644 E.11554
G1 X128.488 Y123.644 E.01314
G1 X128.488 Y127.329 E.11554
G1 X128.069 Y127.329 E.01314
G1 X128.069 Y123.644 E.11554
G1 X127.65 Y123.644 E.01314
G1 X127.65 Y127.329 E.11554
G1 X127.231 Y127.329 E.01314
G1 X127.231 Y123.644 E.11554
G1 X126.812 Y123.644 E.01314
G1 X126.812 Y127.329 E.11554
G1 X126.393 Y127.329 E.01314
G1 X126.393 Y123.644 E.11554
G1 X125.974 Y123.644 E.01314
G1 X125.974 Y127.329 E.11554
G1 X125.555 Y127.329 E.01314
G1 X125.555 Y123.644 E.11554
G1 X125.136 Y123.644 E.01314
G1 X125.136 Y127.329 E.11554
G1 X124.717 Y127.329 E.01314
G1 X124.717 Y123.644 E.11554
G1 X124.299 Y123.644 E.01311
G1 X124.299 Y127.329 E.11554
G1 X123.88 Y127.329 E.01314
G1 X123.88 Y123.644 E.11554
G1 X123.461 Y123.644 E.01314
G1 X123.461 Y127.329 E.11554
G1 X123.042 Y127.329 E.01314
G1 X123.042 Y123.644 E.11554
G1 X122.623 Y123.644 E.01314
G1 X122.623 Y127.329 E.11554
G1 X122.204 Y127.329 E.01314
G1 X122.204 Y123.644 E.11554
G1 X121.785 Y123.644 E.01314
G1 X121.785 Y127.329 E.11554
G1 X121.366 Y127.329 E.01314
G1 X121.366 Y123.644 E.11554
G1 X120.947 Y123.644 E.01314
G1 X120.947 Y127.329 E.11554
G1 X120.528 Y127.329 E.01314
G1 X120.528 Y123.644 E.11554
G1 X120.109 Y123.644 E.01314
G1 X120.109 Y127.329 E.11554
G1 X119.69 Y127.329 E.01314
G1 X119.69 Y123.644 E.11554
G1 X119.271 Y123.644 E.01314
G1 X119.271 Y128.646 E.15683
G1 X118.852 Y128.646 E.01314
G1 X118.852 Y123.644 E.15683
G1 X118.433 Y123.644 E.01314
G1 X118.433 Y128.646 E.15683
G1 X118.014 Y128.646 E.01314
G1 X118.014 Y123.644 E.15683
G1 X117.595 Y123.644 E.01314
G1 X117.595 Y128.646 E.15683
G1 X117.176 Y128.646 E.01314
G1 X117.176 Y123.644 E.15683
G1 X116.757 Y123.644 E.01314
G1 X116.757 Y128.646 E.15683
G1 X116.338 Y128.646 E.01314
G1 X116.338 Y123.644 E.15683
G1 X115.919 Y123.644 E.01314
G1 X115.919 Y128.646 E.15683
G1 X115.5 Y128.646 E.01314
G1 X115.5 Y123.644 E.15683
G1 X115.081 Y123.644 E.01314
G1 X115.081 Y128.646 E.15683
G1 X114.662 Y128.646 E.01314
G1 X114.662 Y123.644 E.15683
G1 X114.243 Y123.644 E.01314
G1 X114.243 Y128.646 E.15683
G1 X113.824 Y128.646 E.01314
G1 X113.824 Y123.644 E.15683
G1 X113.405 Y123.644 E.01314
G1 X113.405 Y128.646 E.15683
G1 X112.986 Y128.646 E.01314
G1 X112.986 Y123.644 E.15683
G1 X112.567 Y123.644 E.01314
G1 X112.567 Y128.646 E.15683
G1 X112.148 Y128.646 E.01314
G1 X112.148 Y123.644 E.15683
G1 X111.729 Y123.644 E.01314
G1 X111.729 Y128.646 E.15683
G1 X111.574 Y128.646 E.00486
G1 X111.574 Y127.329 E.04129
G1 X111.31 Y127.329 E.00828
G1 X111.31 Y123.644 E.11554
G1 X110.891 Y123.644 E.01314
G1 X110.891 Y127.329 E.11554
G1 X110.472 Y127.329 E.01314
G1 X110.472 Y123.644 E.11554
G1 X110.053 Y123.644 E.01314
G1 X110.053 Y127.329 E.11554
G1 X109.634 Y127.329 E.01314
G1 X109.634 Y123.644 E.11554
G1 X109.215 Y123.644 E.01314
G1 X109.215 Y127.329 E.11554
G1 X108.796 Y127.329 E.01314
G1 X108.796 Y123.644 E.11554
G1 X108.377 Y123.644 E.01314
G1 X108.377 Y127.329 E.11554
G1 X107.958 Y127.329 E.01314
G1 X107.958 Y123.644 E.11554
G1 X107.539 Y123.644 E.01314
G1 X107.539 Y127.329 E.11554
G1 X107.12 Y127.329 E.01314
G1 X107.12 Y123.644 E.11554
G1 X106.701 Y123.644 E.01314
G1 X106.701 Y127.329 E.11554
G1 X106.283 Y127.329 E.01311
G1 X106.283 Y123.644 E.11554
G1 X105.864 Y123.644 E.01314
G1 X105.864 Y127.329 E.11554
G1 X105.445 Y127.329 E.01314
G1 X105.445 Y123.644 E.11554
G1 X105.026 Y123.644 E.01314
G1 X105.026 Y127.329 E.11554
G1 X104.607 Y127.329 E.01314
G1 X104.607 Y123.644 E.11554
G1 X104.188 Y123.644 E.01314
G1 X104.188 Y127.329 E.11554
G1 X103.769 Y127.329 E.01314
G1 X103.769 Y123.644 E.11554
G1 X103.35 Y123.644 E.01314
G1 X103.35 Y127.329 E.11554
G1 X102.931 Y127.329 E.01314
G1 X102.931 Y123.644 E.11554
G1 X102.512 Y123.644 E.01314
G1 X102.512 Y127.329 E.11554
G1 X102.093 Y127.329 E.01314
G1 X102.093 Y123.644 E.11554
G1 X101.674 Y123.644 E.01314
G1 X101.674 Y127.329 E.11554
G1 X101.255 Y127.329 E.01314
G1 X101.255 Y123.355 E.1246
G1 X100.836 Y127.498 F9000
G1 F1200
G1 X100.836 Y103.671 E.74708
G1 X100.417 Y103.671 E.01314
G1 X100.417 Y127.329 E.74178
G1 X99.998 Y127.329 E.01314
G1 X99.998 Y103.671 E.74178
G1 X99.579 Y103.671 E.01314
G1 X99.579 Y127.329 E.74178
G1 X99.16 Y127.329 E.01314
G1 X99.16 Y103.671 E.74178
G1 X98.741 Y103.671 E.01314
G1 X98.741 Y127.329 E.74178
G1 X98.322 Y127.329 E.01314
G1 X98.322 Y103.671 E.74178
G1 X97.903 Y103.671 E.01314
G1 X97.903 Y127.329 E.74178
G1 X97.484 Y127.329 E.01314
G1 X97.484 Y103.502 E.74708
G1 E-3.5 F3600
;WIPE_START
G1 F7200
G1 X97.484 Y106.66 E-1.5
;WIPE_END
G1 X102.7 Y109.221 F9000
G1 E5 F2400
;TYPE:Perimeter
;WIDTH:0.419999
G1 F1200
G1 X128.3 Y109.221 E.80267
G1 X128.3 Y115.5 E.19687
G1 X128.3 Y121.779 E.19687
G1 X102.7 Y121.779 E.80267
G1 X102.7 Y109.281 E.39187
G1 X102.323 Y108.844 F9000
G1 F1200
G1 X128.677 Y108.844 E.82631
G1 X128.677 Y115.5 E.20869
G1 X128.677 Y122.156 E.20869
G1 X102.323 Y122.156 E.82631
G1 X102.323 Y108.904 E.41551
G1 X101.946 Y108.467 F9000
;TYPE:External perimeter
G1 F1200
G1 X129.054 Y108.467 E.84995
G1 X129.054 Y115.5 E.22051
G1 X129.054 Y122.533 E.22051
G1 X101.946 Y122.533 E.84995
G1 X101.946 Y108.527 E.43915
G1 E-3.5 F3600
;WIPE_START
G1 F7200
G1 X101.946 Y108.467 E-.0285
G1 X105.044 Y108.467 E-1.4715
;WIPE_END
G1 X127.408 Y109.342 F9000
G1 E5 F2400
;TYPE:Solid infill
;WIDTH:0.424258
G1 F1200
G1 X128.01 Y109.944 E.027
G1 X128.01 Y110.483 E.01709
G1 X127.039 Y109.512 E.04354
G1 X126.499 Y109.512 E.01712
G1 X128.01 Y111.022 E.06773
G1 X128.01 Y111.561 E.01709
G1 X125.96 Y109.512 E.0919
G1 X125.421 Y109.512 E.01709
G1 X128.01 Y112.101 E.1161
G1 X128.01 Y112.64 E.01709
G1 X124.881 Y109.512 E.14029
G1 X124.342 Y109.512 E.01709
G1 X128.01 Y113.179 E.16446
G1 X128.01 Y113.719 E.01712
G1 X123.803 Y109.512 E.18865
G1 X123.264 Y109.512 E.01709
G1 X128.01 Y114.258 E.21282
G1 X128.01 Y114.797 E.01709
G1 X122.724 Y109.512 E.23701
G1 X122.185 Y109.512 E.01709
G1 X128.01 Y115.336 E.26118
G1 X128.01 Y115.876 E.01712
G1 X121.646 Y109.512 E.28538
G1 X121.106 Y109.512 E.01712
G1 X128.01 Y116.415 E.30957
G1 X128.01 Y116.954 E.01709
G1 X120.567 Y109.512 E.33374
G1 X120.028 Y109.512 E.01709
G1 X128.01 Y117.494 E.35793
G1 X128.01 Y118.033 E.01709
G1 X119.488 Y109.512 E.38212
G1 X118.949 Y109.512 E.01709
G1 X128.01 Y118.572 E.40629
G1 X128.01 Y119.112 E.01712
G1 X118.41 Y109.512 E.43049
G1 X117.871 Y109.512 E.01709
G1 X128.01 Y119.651 E.45466
G1 X128.01 Y120.19 E.01709
G1 X117.331 Y109.512 E.47885
G1 X116.792 Y109.512 E.01709
G1 X128.01 Y120.729 E.50302
G1 X128.01 Y121.269 E.01712
G1 X116.253 Y109.512 E.52721
G1 X115.713 Y109.512 E.01712
G1 X127.69 Y121.488 E.53706
G1 X127.151 Y121.488 E.01709
G1 X115.174 Y109.512 E.53706
G1 X114.635 Y109.512 E.01709
G1 X126.612 Y121.488 E.53706
G1 X126.072 Y121.488 E.01712
G1 X114.096 Y109.512 E.53703
G1 X113.556 Y109.512 E.01712
G1 X125.533 Y121.488 E.53706
G1 X124.994 Y121.488 E.01709
G1 X113.017 Y109.512 E.53706
G1 X112.478 Y109.512 E.01709
G1 X124.454 Y121.488 E.53703
G1 X123.915 Y121.488 E.01709
G1 X111.938 Y109.512 E.53706
G1 X111.399 Y109.512 E.01709
G1 X123.376 Y121.488 E.53706
G1 X122.837 Y121.488 E.01709
G1 X110.86 Y109.512 E.53706
G1 X110.32 Y109.512 E.01712
G1 X122.297 Y121.488 E.53706
G1 X121.758 Y121.488 E.01709
G1 X109.781 Y109.512 E.53706
G1 X109.242 Y109.512 E.01709
G1 X121.219 Y121.488 E.53706
G1 X120.679 Y121.488 E.01712
G1 X108.703 Y109.512 E.53703
G1 X108.163 Y109.512 E.01712
G1 X120.14 Y121.488 E.53706
G1 X119.601 Y121.488 E.01709
G1 X107.624 Y109.512 E.53706
G1 X107.085 Y109.512 E.01709
G1 X119.062 Y121.488 E.53706
G1 X118.522 Y121.488 E.01712
G1 X106.545 Y109.512 E.53706
G1 X106.006 Y109.512 E.01709
G1 X117.983 Y121.488 E.53706
G1 X117.444 Y121.488 E.01709
G1 X105.467 Y109.512 E.53706
G1 X104.928 Y109.512 E.01709
G1 X116.904 Y121.488 E.53703
G1 X116.365 Y121.488 E.01709
G1 X104.388 Y109.512 E.53706
G1 X103.849 Y109.512 E.01709
G1 X115.826 Y121.488 E.53706
G1 X115.286 Y121.488 E.01712
G1 X103.31 Y109.512 E.53703
G1 X102.99 Y109.512 E.01015
G1 X102.99 Y109.731 E.00694
